X:162
T:Bezeichnung standardisiert: 15. Tanz in G - nach Drey\sser 1720;
T:15 [Dantz in G nach Johann Friedrich Drey\sser, 1720]
C:Urheber unbekannt, 1720 belegt
S:Handschrift "Dantz B\"uchlein", geschrieben von "Johann Friedrich Drey\sser" "1720", Bayerische Staatsbibliothek Mus.ms. 1578.
S:Scan online: http://daten.digitale-sammlungen.de/bsb00108196/image_174
F:http://simonwascher.info/TradArchiv/Drey\sser_1720  file-version 2017-11-25
Z:abc-Text erstellt von Simon Wascher am 28.10.2016 unter Verwendung der Umwandlung der RISM Incipits und in Kenntniss der Abschrift von Emil Karl BL\"umml im \"Osterreichischen Volksliedarchiv, E-53.
M:C|
L:1/8
K:G mixolydisch treble
d2>e2d2c2 | B2c2d4 | g2>^f2g2a2 | b2a2g4 ::\
a4a4 | a2gfe4 | ^f2>e2d2g2 | g2>^f2g4 H:|

